svg/business/candles_fill.svg

<svg xmlns="http://www.w3.org/2000/svg" width="24" height="24" viewBox="0 0 24 24"><g fill="none"><path d="M24,0 L24,24 L0,24 L0,0 L24,0 Z M12.5935,23.2578 L12.5819,23.2595 L12.5109,23.295 L12.4919,23.2987 L12.4767,23.295 L12.4057,23.2595 C12.3958,23.2564 12.387,23.259 12.3821,23.2649 L12.378,23.2758 L12.3609,23.7031 L12.3659,23.7235 L12.3769,23.7357 L12.4805,23.8097 L12.4953,23.8136 L12.5071,23.8097 L12.6107,23.7357 L12.6233,23.7197 L12.6267,23.7031 L12.6096,23.2758 C12.6076,23.2657 12.601,23.2593 12.5935,23.2578 Z M12.8584,23.1453 L12.8445,23.1473 L12.6598,23.2397 L12.6499,23.2499 L12.6472,23.2611 L12.6651,23.6906 L12.6699,23.7034 L12.6784,23.7105 L12.8793,23.8032 C12.8914,23.8069 12.9022,23.803 12.9078,23.7952 L12.9118,23.7812 L12.8777,23.1665 C12.8753,23.1546 12.8674,23.147 12.8584,23.1453 Z M12.143,23.1473 C12.1332,23.1424 12.1222,23.1453 12.1156,23.1526 L12.1099,23.1665 L12.0758,23.7812 C12.0751,23.7927 12.0828,23.8019 12.0926,23.8046 L12.1083,23.8032 L12.3092,23.7105 L12.3186,23.7024 L12.3225,23.6906 L12.3404,23.2611 L12.3372,23.2485 L12.3278,23.2397 L12.143,23.1473 Z"/><path fill="#09244B" d="M12,10 C13.0543909,10 13.9181678,10.81585 13.9945144,11.8507339 L14,12 L14,20 C14,21.0543909 13.18415,21.9181678 12.1492661,21.9945144 L12,22 L6,22 C4.94563773,22 4.08183483,21.18415 4.00548573,20.1492661 L4,20 L4,12 C4,10.9456091 4.81587733,10.0818322 5.85073759,10.0054856 L6,10 L12,10 Z M19,13 C20.0543909,13 20.9181678,13.81585 20.9945144,14.8507339 L21,15 L21,20 C21,21.0543909 20.18415,21.9181678 19.1492661,21.9945144 L19,22 L15.4649,22 C15.7626625,21.4852375 15.9490266,20.8978938 15.990965,20.2709959 L16,20 L16,13 L19,13 Z M16.6637,6.09037 C17.2795,6.37161 17.8454,6.87667 18.2573,7.44876 C18.6679,8.01909 19,8.76092 19,9.55556 C19,11.1226 17.6125,12.0000035 16.4271,12.0000035 C15.4917,12.0000035 14.6708,11.3498 14.2809,10.6004 C14.0712,10.1974 13.9512,9.70802 14.0189,9.18427 C14.0878,8.6512 14.3425,8.15275 14.7666,7.73338 C14.9584,7.54368 15.0548,7.4236 15.117,7.31492 C15.1732,7.21673 15.2251,7.08627 15.2587,6.8556 C15.3042,6.5442 15.4936,6.27235 15.7699,6.12182 C16.0463,5.97129 16.3774,5.95964 16.6637,6.09037 Z M9.05792,2.08071 C9.81136,2.4033 10.526,2.99456 11.054,3.68222 C11.5784,4.36498 12,5.25053 12,6.19444 C12,8.03365 10.2853,9.00000043 8.90284,9.00000043 C7.84142,9.00000043 6.84173,8.29556 6.34964,7.40886 C6.08931,6.93974 5.93897,6.36723 6.02355,5.754 C6.10938,5.13163 6.42523,4.55538 6.94645,4.0722 C7.2107,3.82723 7.35954,3.65756 7.45969,3.49349 C7.55228,3.34182 7.62846,3.15306 7.67623,2.8462 C7.72373,2.54103 7.90956,2.27494 8.17971,2.12527 C8.44986,1.97561 8.77401,1.95916 9.05792,2.08071 Z"/></g></svg>

<svg xmlns="http://www.w3.org/2000/svg" width="24" height="24"><g fill="none"><path d="M24 0v24H0V0zM12.594 23.258l-.012.002-.071.035-.02.004-.014-.004-.071-.036c-.01-.003-.019 0-.024.006l-.004.01-.017.428.005.02.01.013.104.074.015.004.012-.004.104-.074.012-.016.004-.017-.017-.427c-.002-.01-.009-.017-.016-.018m.264-.113-.014.002-.184.093-.01.01-.003.011.018.43.005.012.008.008.201.092c.012.004.023 0 .029-.008l.004-.014-.034-.614c-.003-.012-.01-.02-.02-.022m-.715.002a.023.023 0 0 0-.027.006l-.006.014-.034.614c0 .012.007.02.017.024l.015-.002.201-.093.01-.008.003-.011.018-.43-.003-.012-.01-.01z"/><path fill="#09244B" d="M12 10a2 2 0 0 1 1.995 1.85L14 12v8a2 2 0 0 1-1.85 1.995L12 22H6a2 2 0 0 1-1.995-1.85L4 20v-8a2 2 0 0 1 1.85-1.995L6 10zm7 3a2 2 0 0 1 1.995 1.85L21 15v5a2 2 0 0 1-1.85 1.995L19 22h-3.535a3.976 3.976 0 0 0 .526-1.729L16 20v-7zm-2.336-6.91c.615.282 1.181.787 1.593 1.359.41.57.743 1.312.743 2.107C19 11.123 17.613 12 16.427 12c-.935 0-1.756-.65-2.146-1.4a2.398 2.398 0 0 1-.262-1.416c.069-.533.323-1.031.748-1.45.191-.19.288-.31.35-.42.056-.097.108-.228.142-.458a1 1 0 0 1 1.405-.766M9.058 2.08c.753.323 1.468.915 1.996 1.602.524.683.946 1.569.946 2.512C12 8.034 10.285 9 8.903 9 7.84 9 6.842 8.296 6.35 7.409a2.655 2.655 0 0 1-.326-1.655c.085-.622.401-1.199.922-1.682.265-.245.414-.414.514-.579.092-.151.168-.34.216-.647a1 1 0 0 1 1.382-.765"/></g></svg>
